svg/idea.svg

<?xml version="1.0" encoding="UTF-8"?>
<svg xmlns="http://www.w3.org/2000/svg" xmlns:xlink="http://www.w3.org/1999/xlink" width="32" height="32" viewBox="0 0 32 32">
<path fill-rule="nonzero" fill="rgb(0%, 0%, 0%)" fill-opacity="1" d="M 16 1.921875 C 10.707031 1.921875 6.398438 6.226562 6.398438 11.519531 C 6.398438 15.46875 8.183594 17.371094 9.480469 18.761719 C 10.296875 19.636719 10.878906 20.265625 10.878906 21.121094 L 10.878906 24.320312 L 15.359375 24.320312 L 15.359375 14.980469 L 12.980469 12.621094 C 12.730469 12.363281 12.730469 11.957031 12.980469 11.699219 C 13.230469 11.449219 13.648438 11.449219 13.898438 11.699219 L 16 13.820312 L 18.101562 11.699219 C 18.351562 11.449219 18.769531 11.449219 19.019531 11.699219 C 19.269531 11.957031 19.269531 12.363281 19.019531 12.621094 L 16.640625 14.980469 L 16.640625 24.320312 L 21.121094 24.320312 L 21.121094 21.121094 C 21.121094 19.894531 21.828125 19.152344 22.71875 18.21875 C 24.003906 16.878906 25.601562 15.214844 25.601562 11.519531 C 25.601562 6.226562 21.292969 1.921875 16 1.921875 M 10.878906 25.601562 L 10.878906 27.519531 C 10.878906 28.578125 11.742188 29.441406 12.800781 29.441406 L 13.539062 29.441406 C 13.824219 30.566406 14.835938 31.359375 16 31.359375 C 17.160156 31.359375 18.175781 30.566406 18.460938 29.441406 L 19.199219 29.441406 C 20.261719 29.4375 21.117188 28.582031 21.121094 27.519531 L 21.121094 25.601562 Z M 10.878906 25.601562 "/>
</svg>

<svg role="img" viewBox="0 0 32 32" height="32" width="32" xmlns="http://www.w3.org/2000/svg"><path d="M16 1.922c-5.293 0-9.602 4.305-9.602 9.598 0 3.949 1.786 5.851 3.082 7.242.817.875 1.399 1.504 1.399 2.36v3.198h4.48v-9.34l-2.379-2.359a.66.66 0 0 1 0-.922c.25-.25.668-.25.918 0L16 13.82l2.102-2.12c.25-.25.668-.25.918 0a.66.66 0 0 1 0 .921l-2.38 2.36v9.34h4.481v-3.2c0-1.226.707-1.969 1.598-2.902 1.285-1.34 2.883-3.004 2.883-6.7 0-5.292-4.309-9.597-9.602-9.597m-5.121 23.68v1.918c0 1.058.863 1.921 1.922 1.921h.738A2.543 2.543 0 0 0 16 31.36a2.543 2.543 0 0 0 2.46-1.918h.74a1.926 1.926 0 0 0 1.921-1.921v-1.918Zm0 0"/></svg>
